static/logos/typeform-wordmark-color.svg

<svg width="100" height="23" viewBox="0 0 100 23" fill="none" xmlns="http://www.w3.org/2000/svg">
<g clip-path="url(#clip0_1_578)">
<path d="M64.591 15.5373C62.5094 15.5373 61.4404 13.8233 61.4404 11.7182C61.4404 9.61302 62.4906 7.9922 64.591 7.9922C66.729 7.9922 67.742 9.68751 67.742 11.7182C67.7233 13.8606 66.6543 15.5373 64.591 15.5373ZM44.2237 7.9922C45.4425 7.9922 45.949 8.70016 45.949 9.31494C45.949 10.8053 44.4298 11.4573 41.2604 11.5505C41.2604 9.70616 42.3106 7.9922 44.2237 7.9922ZM30.7202 15.5373C28.7509 15.5373 27.9257 13.9351 27.9257 11.7182C27.9257 9.51988 28.7697 7.9922 30.7202 7.9922C32.7082 7.9922 33.6459 9.57576 33.6459 11.7182C33.6459 13.9538 32.6707 15.5373 30.7202 15.5373ZM14.066 5.81253H10.9902L16.0915 17.5121C15.1163 19.6731 14.5911 20.2134 13.916 20.2134C13.2033 20.2134 12.5281 19.6359 12.0405 19.1329L10.6902 20.9213C11.6091 21.8901 12.8657 22.449 14.1598 22.449C15.7727 22.449 17.0105 21.5175 17.7232 19.8408L23.6122 5.79388H20.5927L17.5169 14.1773L14.066 5.81253ZM95.5363 7.9922C97.0367 7.9922 97.3367 9.01686 97.3367 11.4201V17.7356H100V9.76204C100 6.89306 98.0306 5.64486 96.2114 5.64486C94.5988 5.64486 93.1171 6.65086 92.2918 8.51384C91.8229 6.72539 90.3225 5.64486 88.5784 5.64486C87.0592 5.64486 85.54 6.61359 84.7151 8.42069V5.81253H82.0518V17.717H84.7151V12.6311C84.7151 10.0601 86.0653 7.9922 87.9033 7.9922C89.4037 7.9922 89.6849 9.01686 89.6849 11.4201V17.7356H92.3482L92.3294 12.6311C92.3294 10.0601 93.6984 7.9922 95.5363 7.9922ZM74.2857 5.81253H72.9371V17.717H75.6V13.1527C75.6 10.2651 76.8755 8.3089 78.7698 8.3089C79.2571 8.3089 79.6698 8.32755 80.12 8.51384L80.5327 5.70073C80.1951 5.66347 79.8951 5.6262 79.5947 5.6262C77.7196 5.6262 76.369 6.91167 75.5812 8.56976V5.81253H74.2857ZM64.591 5.6262C61.0653 5.6262 58.6833 8.3089 58.6833 11.6996C58.6833 15.2206 61.1029 17.8474 64.591 17.8474C68.1359 17.8474 70.5551 15.1461 70.5551 11.6996C70.5363 8.29029 68.0796 5.6262 64.591 5.6262ZM44.3735 15.5373C42.9857 15.5373 41.9543 14.8294 41.5229 13.3949C45.0486 13.2458 48.4996 12.3889 48.4996 9.27767C48.4996 7.48918 46.7367 5.64486 44.2049 5.64486C40.7914 5.64486 38.4846 8.42069 38.4846 11.7182C38.4846 15.1647 40.7539 17.866 44.1486 17.866C46.5114 17.866 48.0118 16.9159 49.1935 15.5373L47.8996 13.7861C46.5302 15.1833 45.6865 15.5373 44.3735 15.5373ZM31.2453 5.6262C29.895 5.6262 28.5447 6.40865 28.0195 7.63824V5.81253H25.3563V22.3931H28.0195V16.4688C28.5822 17.3258 29.8762 17.8847 31.0202 17.8847C34.5649 17.8847 36.4404 15.2578 36.4404 11.7182C36.4216 8.21576 34.5836 5.6262 31.2453 5.6262ZM12.5656 1.04327H0V3.63282H4.91371V17.717H7.70816V3.63282H12.5656V1.04327ZM52.1567 5.81253H50.5625V8.19714H52.1567V17.717H54.82V8.19714H57.4082V5.81253H54.82V3.94953C54.82 2.75722 55.3078 2.34736 56.4143 2.34736C56.8265 2.34736 57.2016 2.45914 57.7082 2.62681L58.3082 0.391227C57.8208 0.111779 56.8453 0 56.2078 0C53.6571 0 52.1567 1.52765 52.1567 4.1731V5.81253Z" fill="#262627"/>
</g>
<defs>
<clipPath id="clip0_1_578">
<rect width="100" height="22.449" fill="white"/>
</clipPath>
</defs>
</svg>

<svg xmlns="http://www.w3.org/2000/svg" width="278.261" height="64" fill="none" viewBox="0 0 100 23"><g clip-path="url(#a)"><path fill="#262627" d="M64.591 15.537c-2.082 0-3.15-1.714-3.15-3.819s1.05-3.726 3.15-3.726c2.138 0 3.151 1.696 3.151 3.726-.019 2.143-1.088 3.82-3.151 3.82ZM44.224 7.992c1.219 0 1.725.708 1.725 1.323 0 1.49-1.52 2.142-4.689 2.236 0-1.845 1.05-3.559 2.964-3.559ZM30.72 15.537c-1.97 0-2.794-1.602-2.794-3.819 0-2.198.844-3.726 2.794-3.726 1.988 0 2.926 1.584 2.926 3.726 0 2.236-.975 3.82-2.926 3.82ZM14.066 5.813H10.99l5.101 11.7c-.975 2.16-1.5 2.7-2.175 2.7-.713 0-1.388-.577-1.876-1.08l-1.35 1.788c.92.97 2.176 1.528 3.47 1.528 1.613 0 2.85-.932 3.563-2.608l5.89-14.047h-3.02l-3.076 8.383-3.451-8.364Zm81.47 2.18c1.5 0 1.8 1.024 1.8 3.427v6.316H100V9.762c0-2.869-1.97-4.117-3.789-4.117-1.612 0-3.094 1.006-3.92 2.869-.468-1.789-1.968-2.87-3.713-2.87-1.519 0-3.038.97-3.863 2.777V5.813h-2.663v11.904h2.663v-5.086c0-2.57 1.35-4.639 3.188-4.639 1.5 0 1.782 1.025 1.782 3.428v6.316h2.663l-.019-5.105c0-2.57 1.37-4.639 3.207-4.639Zm-21.25-2.18h-1.349v11.904H75.6v-4.564c0-2.888 1.276-4.844 3.17-4.844.487 0 .9.019 1.35.205l.413-2.813c-.338-.038-.638-.075-.938-.075-1.875 0-3.226 1.286-4.014 2.944V5.813h-1.295Zm-9.695-.187c-3.526 0-5.908 2.683-5.908 6.074 0 3.52 2.42 6.147 5.908 6.147 3.545 0 5.964-2.7 5.964-6.147-.019-3.41-2.475-6.074-5.964-6.074Zm-20.217 9.911c-1.388 0-2.42-.708-2.851-2.142 3.526-.15 6.977-1.006 6.977-4.117 0-1.789-1.763-3.633-4.295-3.633-3.414 0-5.72 2.776-5.72 6.073 0 3.447 2.269 6.148 5.664 6.148 2.362 0 3.863-.95 5.044-2.329l-1.293-1.75c-1.37 1.396-2.213 1.75-3.526 1.75Zm-13.129-9.91c-1.35 0-2.7.782-3.226 2.011V5.813h-2.663v16.58h2.663V16.47c.563.857 1.857 1.416 3.001 1.416 3.545 0 5.42-2.627 5.42-6.167-.018-3.502-1.856-6.092-5.195-6.092Zm-18.68-4.584H0v2.59h4.914v14.084h2.794V3.633h4.858v-2.59Zm39.592 4.77h-1.594v2.384h1.594v9.52h2.663v-9.52h2.588V5.813H54.82V3.95c0-1.193.488-1.603 1.594-1.603.413 0 .788.112 1.294.28l.6-2.236C57.821.111 56.845 0 56.208 0c-2.55 0-4.051 1.528-4.051 4.173v1.64Z"/></g><defs><clipPath id="a"><path fill="#fff" d="M0 0h100v22.449H0z"/></clipPath></defs></svg>
